src/renderer/assets/svg/icon-wallet.svg

<svg width="24" height="24" viewBox="0 0 24 24" fill="currentColor" xmlns="http://www.w3.org/2000/svg">
<path fill="currentColor" d="M16.8444 3.9985C16.5781 3.54039 16.1413 3.20624 15.6295 3.06901C15.1176 2.93177 14.5723 3.00259 14.1124 3.266L9.37744 6H17.9999L16.8444 3.9985ZM14.9999 13.5C15.0001 13.7653 15.1056 14.0197 15.2933 14.2071C15.4809 14.3946 15.7354 14.4999 16.0007 14.4998C16.266 14.4996 16.5203 14.3941 16.7078 14.2064C16.8953 14.0188 17.0006 13.7643 17.0004 13.499C17.0004 13.2337 16.8949 12.9793 16.7073 12.7918C16.5197 12.6043 16.2652 12.4989 15.9999 12.499C15.7347 12.4991 15.4803 12.6045 15.2927 12.7921C15.1052 12.9798 14.9999 13.2342 14.9999 13.4995" />
<path fill="currentColor" d="M21 9.5C21 8.4 20.1 7.5 19 7.5H5C3.9 7.5 3 8.4 3 9.5V19C3 20.1 3.9 21 5 21H19C20.1 21 21 20.1 21 19V16H16.0035C14.6285 16 13.5035 14.875 13.5035 13.5C13.5035 12.125 14.6285 11 16.0035 11H21V9.5Z"/>
</svg>

<svg xmlns="http://www.w3.org/2000/svg" width="24" height="24" fill="currentColor" viewBox="0 0 24 24"><path d="M16.844 3.999a2.006 2.006 0 0 0-2.732-.733L9.377 6H18zM15 13.5a1 1 0 1 0 2 0 1 1 0 0 0-2 0"/><path d="M21 9.5c0-1.1-.9-2-2-2H5c-1.1 0-2 .9-2 2V19c0 1.1.9 2 2 2h14c1.1 0 2-.9 2-2v-3h-4.997a2.507 2.507 0 0 1-2.5-2.5c0-1.375 1.126-2.5 2.5-2.5H21z"/></svg>
